X:173
T:Reel 173
M:4/4
K:Dmaj
L:1/8
 (3ABc |d2FG Adfe|dfdB A2FE|D2FG A2de|fgfe d2 (3ABc |d2dB A2AB|dBAB A2Bc|defd e2dc|dgfd ecdc|dB|AFAB A2FA|dedB A2FE|DEFA B2FA|Beed cABc|defg afed|dB (3BBA BdFA|BABc defg|agef d2|
